X: 4020
T: Blackwater, The
R: polka
M: 2/4
K: Gmajor
g|fe f/>g/f/e/|fe dg|f/>g/f/e/ fe|d2 ef|
ga/g/ fg/f/|ed Bd|cd/c/ BA|G2- Gg|
fe f>e|fe dg|f>e fe|d2 ef|
ga/g/ fg/f/|ed Bd|cd/c/ BA|G2 G||
|:A|B>A Bd|c>B ce|d>^c dg|f/g/a g2|
e/d/e/f/ ge|dB Bd|cd/c/ BA|G2- G:|

